X:57
T: MEIN SCHATZ IS E REITER
N: E1055
O: Europa, Mitteleuropa, Deutschland, Schwaben
R: Tanz - Lied, Jodler
M: 3/4
L: 1/8
K: C
G,2 | E,3G,G,2 | A,2G,2G,2 | E,3G,G,2 | G,2z2
G,2 | A,2A,2A,2 | C3B,A,2 | A,3G,G,2 | G,2z
G,A,G, | G,2F2F2 | F2zG,A,G, | G,2E2E2 | E2z2
EE | D2D2DE | F2B,2B,2 | D2C2C2 | C2z2

@@@ Tune index: 4741
